assets/images/svg/svg-menu-govern.svg

<svg width="30" height="30" viewBox="0 0 30 30" fill="none" xmlns="http://www.w3.org/2000/svg">
<path d="M15.119 7.58936H13.0557C9.28443 7.58936 7.39881 7.58936 6.22724 8.76093C5.05566 9.9325 5.05566 11.8181 5.05566 15.5894V23.3395C5.05566 24.2823 5.05566 24.7537 5.34856 25.0466C5.64145 25.3395 6.11286 25.3395 7.05566 25.3395H14.946C18.7172 25.3395 20.6029 25.3395 21.7744 24.1679C22.946 22.9963 22.946 21.1107 22.946 17.3395V15.355" stroke="white"/>
<path d="M10.1672 13.9287L17.8345 13.9287" stroke="white" stroke-linecap="round" stroke-linejoin="round"/>
<path d="M10.1672 19H14.0009" stroke="white" stroke-linecap="round" stroke-linejoin="round"/>
<path d="M19.1125 7.58944L20.964 9.42637C21.3539 9.8132 21.9828 9.8132 22.3726 9.42637L26.7798 5.05371" stroke="white" stroke-linecap="round"/>
</svg>

<svg width="30" height="30" fill="none" xmlns="http://www.w3.org/2000/svg">
  <path d="M15.119 7.59h-2.063c-3.772 0-5.657 0-6.829 1.17-1.171 1.172-1.171 3.058-1.171 6.83v7.75c0 .942 0 1.414.293 1.707.292.293.764.293 1.707.293h7.89c3.771 0 5.657 0 6.828-1.172 1.172-1.172 1.172-3.057 1.172-6.828v-1.985" stroke="#fff"/>
  <path d="M10.167 13.929h7.667M10.167 19h3.834" stroke="#fff" stroke-linecap="round" stroke-linejoin="round"/>
  <path d="m19.113 7.59 1.851 1.836a1 1 0 0 0 1.409 0l4.407-4.372" stroke="#fff" stroke-linecap="round"/>
</svg>
